file/premiere.svg

<svg clip-rule="evenodd" fill-rule="evenodd" stroke-linejoin="round" stroke-miterlimit="1.41421" viewBox="0 0 560 400" xmlns="http://www.w3.org/2000/svg"><g transform="matrix(1.125 0 0 1.125 145 68.3755)"><path d="m10 10h220v214h-220z" fill="#2a0034"/><g fill="#ea77ff"><path d="m0 0v234h240.001v-234zm10 10h220.001v214h-220.001z"/><path d="m62.97 54.778c0-.66.165-1.155.99-1.155 6.435-.33 15.84-.495 25.74-.495 27.72 0 39.765 15.18 39.765 34.65 0 25.41-18.385 36.3-40.99 36.3-3.795 0-5.115-.164-7.755-.164v38.43c0 .826-.33 1.156-1.155 1.156h-15.44c-.825 0-1.155-.33-1.155-1.156zm17.75 53.129c2.31.166 4.125.166 8.085.166 11.715 0 22.675-4.125 22.675-19.965 0-12.705-7.825-19.141-21.19-19.141-3.96 0-7.755.166-9.57.33zm63.999-9.075c0-1.154 0-4.125-.494-9.734 0-.826.115-.99.775-1.32 6.104-2.475 20.393-6.93 36.563-6.93.826 0 1.156.164 1.156.989v14.52c0 .824-.266.99-1.09.99-6.271-.33-15.445.494-18.91 1.979v63.016c0 .826-.33 1.156-1.156 1.156h-15.689c-.825 0-1.155-.33-1.155-1.156z"/></g></g></svg>

<?xml version="1.0" encoding="UTF-8" standalone="no"?>
<!DOCTYPE svg PUBLIC "-//W3C//DTD SVG 1.1//EN" "http://www.w3.org/Graphics/SVG/1.1/DTD/svg11.dtd">
<svg width="100%" height="100%" viewBox="0 0 560 400" version="1.1" xmlns="http://www.w3.org/2000/svg" xmlns:xlink="http://www.w3.org/1999/xlink" xml:space="preserve" xmlns:serif="http://www.serif.com/" style="fill-rule:evenodd;clip-rule:evenodd;stroke-linejoin:round;stroke-miterlimit:1.41421;">
    <g transform="matrix(1.125,0,0,1.125,145,68.3755)">
        <rect x="10" y="10" width="220" height="214" style="fill:rgb(42,0,52);"/>
        <path d="M0,0L0,234L240.001,234L240.001,0L0,0ZM10,10L230.001,10L230.001,224L10,224L10,10Z" style="fill:rgb(234,119,255);"/>
        <path d="M62.97,54.778C62.97,54.118 63.135,53.623 63.96,53.623C70.395,53.293 79.8,53.128 89.7,53.128C117.42,53.128 129.465,68.308 129.465,87.778C129.465,113.188 111.08,124.078 88.475,124.078C84.68,124.078 83.36,123.914 80.72,123.914L80.72,162.344C80.72,163.17 80.39,163.5 79.565,163.5L64.125,163.5C63.3,163.5 62.97,163.17 62.97,162.344L62.97,54.778ZM80.72,107.907C83.03,108.073 84.845,108.073 88.805,108.073C100.52,108.073 111.48,103.948 111.48,88.108C111.48,75.403 103.655,68.967 90.29,68.967C86.33,68.967 82.535,69.133 80.72,69.297L80.72,107.907ZM144.719,98.832C144.719,97.678 144.719,94.707 144.225,89.098C144.225,88.272 144.34,88.108 145,87.778C151.104,85.303 165.393,80.848 181.563,80.848C182.389,80.848 182.719,81.012 182.719,81.837L182.719,96.357C182.719,97.181 182.453,97.347 181.629,97.347C175.358,97.017 166.184,97.841 162.719,99.326L162.719,162.342C162.719,163.168 162.389,163.498 161.563,163.498L145.874,163.498C145.049,163.498 144.719,163.168 144.719,162.342L144.719,98.832Z" style="fill:rgb(234,119,255);"/>
    </g>
</svg>
